X: 1745
T: Native Land Waltz
B: australian traditional tunes wiki
M:3/4
L:1/8
R: Waltz
Q: 1/4=100
K:D
V:1 
|"D"D3 F A2|"G"G2 B2 cB|"D"A2 d3 e|f6|g2 f3e|"A"d2 c2 B2|A3B AG|"D"F4 (3EFE|
D2 F3 A|"G"G2 B2 cB|"D"A2 d3e|"Bm"f6|"G"(3gag f3e|"A"(3ded c2 B2|A2 fA eA|"D"d4Ad||
|:"D"f3Adf|"A"e3Ace|"Bm"d3FAd|"A"c3B A2|"G"B4 c2|1"D"d6|"Em"e4 f2|"A" e4de:|2"G"d4cB|"A"A2 f2 e2|"D"d4||
% abcbook-tune_id 6342d53af1cb36aab820dcf2


% abcbook-boost 0
% abcbook-tablature 
% abcbook-transpose 
% abcbook-lastupdated 1665324381442
% abcbook-soundfonts 
% abcbook-repeats 1
% NFF Book 2016

